X:1
T:Partition sans titre
C:Compositeur / Arrangeur
L:1/8
M:4/4
I:linebreak $
K:Bb
V:1 treble nm="Violon" snm="Vln."
V:1
"Gm" DGGF DGGF | DFGA"F" (3BAG AF |"Gm" DGGF DGGF | DCB,C B,A,B,A, |"Gm" DGGF DGGF | %5
 DFGA"F" (3BAG Ac |"Gm" dcBc BAGF |1 DGGF G2 G2 :|2 DGGF GABc |:"Gm" dGGc GGBG | GAGG GABc | %11
"F" dFFc FFBF | FAFF"Gm" GABc |"Gm" dEEc EEBE | EAEE GABc | dcBc BAGF |1 DGGF GABc :|2 %17
 DGGF G2 G2 |] %18
